X:273
T:Pokarekare Ana
Z:Jack Campin, http://www.campin.me.uk/
F:Jack Campin's Nine-Note Tunebook
% last edit 03-02-2013
C:Paraire Tomoana 
N:simplified down to what most Kiwis sing these days
N:for more elaborate versions and historical nitty-gritty,
N:go to http://folksong.org.nz/pokarekare/index.html
M:4/4
L:1/8
Q:1/4=110
K:G
D2|BB AA G4 |B6 \
D2|G2 FF E4 |A6
EE|AA GG F4 |A6 \
D2|E2 F2 G4-|G6||
G2|A2 B2 c4-|c6 \
E2|G2 c2 B4-|B6
D2|G2 B2 A4-|A6 \
FF|E2 D2 G4-|G6|]


% == Australian music =======================================================

